icons/src/chevron.up.svg

<?xml version="1.0" encoding="UTF-8"?>
<!--Generator: Apple Native CoreSVG 341-->
<!DOCTYPE svg
PUBLIC "-//W3C//DTD SVG 1.1//EN"
       "http://www.w3.org/Graphics/SVG/1.1/DTD/svg11.dtd">
<svg version="1.1" xmlns="http://www.w3.org/2000/svg" xmlns:xlink="http://www.w3.org/1999/xlink" viewBox="0 0 17.3242 10.3418">
 <g>
  <rect height="10.3418" opacity="0" width="17.3242" x="0" y="0"/>
  <path d="M0.263672 8.02734C0.0976562 8.18359 0 8.4082 0 8.66211C0 9.16992 0.380859 9.55078 0.888672 9.55078C1.14258 9.55078 1.37695 9.46289 1.52344 9.29688L9.00391 1.66016L7.95898 1.66016L15.4395 9.29688C15.5957 9.46289 15.8301 9.55078 16.0742 9.55078C16.582 9.55078 16.9629 9.16992 16.9629 8.66211C16.9629 8.4082 16.8652 8.18359 16.6992 8.02734L9.14062 0.292969C8.97461 0.107422 8.73047 0 8.48633 0C8.23242 0 7.99805 0.107422 7.82227 0.292969Z" fill="white"/>
 </g>
</svg>

<!--Generator: Apple Native CoreSVG 341-->
<!DOCTYPE svg  PUBLIC '-//W3C//DTD SVG 1.1//EN'  'http://www.w3.org/Graphics/SVG/1.1/DTD/svg11.dtd'>
<svg version="1.1" viewBox="0 0 17.324 10.342" xmlns="http://www.w3.org/2000/svg">
 <rect width="17.324" height="10.342" opacity="0"/>
 <path d="m0.26367 8.0273c-0.16602 0.15625-0.26367 0.38086-0.26367 0.63477 0 0.50781 0.38086 0.88867 0.88867 0.88867 0.25391 0 0.48828-0.08789 0.63477-0.2539l7.4805-7.6367h-1.0449l7.4805 7.6367c0.1562 0.16601 0.3906 0.2539 0.6347 0.2539 0.5078 0 0.8887-0.38086 0.8887-0.88867 0-0.25391-0.0977-0.47852-0.2637-0.63477l-7.5586-7.7344c-0.16601-0.18555-0.41015-0.29297-0.65429-0.29297-0.25391 0-0.48828 0.10742-0.66406 0.29297z" fill="#fff"/>
</svg>
